X: 19
T: No_27_Dance_Song_of_Grindstone_Village_(b).krn
N: Derived from No_27_Dance_Song_of_Grindstone_Village_(b).krn
%%abc-version 2.0
%%abcx-abcm2ps-target-version 5.9.1 (29 Sep 2008)
%%abc-creator hum2abc beta
%%abcx-conversion-date 2019/03/15 08:35:00
%%humdrum-veritas 2472376629
%%humdrum-veritas-data 1518582860
%%linebreak <none>
%%barnumbers 0
L: 1/8
M: 3/4
K: G clef=bass
[K:clef=bass][M:3/4]z4z D, | 
E,E,E,2E,D, | 
[M:2/4]E,3/D,/E,2 | 
(E,3/D,/) z3/ D,/ | 
E,3/E,/ D,/ z3/ | 
[M:3/4]D,3/B,,/E,2E,/D,3/ | 
E,3/D,/ E,3/E,/ D, z/ D,/ | 
[M:2/4]E,3/E,/ D, z | 
D,3/B,,/ E, z ]|:  
E3/E/ E/D3/ | 
B,2B,/A,/ z | 
B,3/D/ B,/A,3/ | 
A,3/G,/ G,/F,/ z | 
[M:3/4](3:2:4D,D,B,,/B,,/ E,3/E,/ D,/B,,D,/ | 
[M:2/4]E,3/E,/ D, z/ D,/ | 
E,3/E,/ D, z | 
[M:3/4]D,3/B,,/ E,3/E,/ D,/B,,D,/ | 
[M:2/4]E,3/E,/ D, z/ D,/ | 
E,3/E,/ D, z | 
D,3/B,,/ E, z :|]  



